X:2771
L:1/8
M:2/4
K:F
 cfcf | g/f/g/a/ gg | c'bge | f/e/f/g/ ff | cf cf | g/f/g/a/ gg | c'bge | fa f2 | c'bge | fafc | 
 BB B/A/B/c/ | B/d/c/B/ A/c/f/a/ | c'bge | fafc | =B/c/e/d/ c/_B/A/G/ | Ff F2 :|

